X: 17623
T: Hold The Reins
R: reel
M: 4/4
K: Gmajor
de f2 dg g2|(de)fg (fd)cA|df f2 dg g2|fdcA A(G G2)|
de f2 dg g2|(de)fg (fd)cA|(de)fg ((3agf) ge|fdcA A(G G2):|
g2 dc (BG)GB|(Ac)=fc (AB)cA|g2 dc (BG)GB|(Ac)=fc A(G G2)|
g2 dc (BG)GB|(Ac)=fc (AB)cA|((3dcB) cA (BG)(Ag)|(fd)cA A(G G2):|

